img/results-02.svg

<svg width="32" height="32" viewBox="0 0 32 32" fill="none" xmlns="http://www.w3.org/2000/svg">
<path d="M30.24 11.5199L25.44 5.11994C25.317 4.95494 25.134 4.84494 24.931 4.81094L15.331 3.21094C15.245 3.19694 15.155 3.19694 15.069 3.21094L5.469 4.81094C5.266 4.84494 5.083 4.95494 4.96 5.11994L0.160001 11.5199C-0.0689991 11.8259 -0.0499991 12.2509 0.205001 12.5339L14.605 28.5339C14.757 28.7019 14.973 28.7999 15.2 28.7999C15.427 28.7999 15.643 28.7039 15.795 28.5339L30.195 12.5339C30.451 12.2489 30.47 11.8249 30.24 11.5199ZM20.458 11.1999L15.2 25.6589L9.942 11.1999H20.458ZM10.731 9.59994L15.2 5.13094L19.669 9.59994H10.731ZM17.531 5.19994L23.448 6.18594L21.475 9.14394L17.529 5.19994H17.531ZM8.925 9.14394L6.952 6.18594L12.869 5.19994L8.925 9.14394ZM7.472 9.84994L2.696 10.8049L5.562 6.98394L7.472 9.84994ZM8.283 11.3199L13.041 24.4059L2.334 12.5079L8.283 11.3179V11.3199ZM22.117 11.3199L28.066 12.5099L17.359 24.4079L22.117 11.3219V11.3199ZM22.928 9.84994L24.838 6.98394L27.704 10.8049L22.928 9.84994Z" fill="#008DBB"/>
</svg>

<svg xmlns="http://www.w3.org/2000/svg" width="32" height="32" viewBox="0 0 32 32" fill="#B68157"><title>diamond3</title><path d="M30.24 11.52l-4.8-6.4c-0.123-0.165-0.306-0.275-0.509-0.309l-9.6-1.6c-0.086-0.014-0.176-0.014-0.262 0l-9.6 1.6c-0.203 0.034-0.386 0.144-0.509 0.309l-4.8 6.4c-0.229 0.306-0.21 0.731 0.045 1.014l14.4 16c0.152 0.168 0.368 0.266 0.595 0.266s0.443-0.096 0.595-0.266l14.4-16c0.256-0.285 0.275-0.709 0.045-1.014zM20.458 11.2l-5.258 14.459-5.258-14.459h10.515zM10.731 9.6l4.469-4.469 4.469 4.469h-8.938zM17.531 5.2l5.917 0.986-1.973 2.958-3.946-3.944zM8.925 9.144l-1.973-2.958 5.917-0.986-3.944 3.944zM7.472 9.85l-4.776 0.955 2.866-3.821 1.91 2.866zM8.283 11.32l4.758 13.086-10.707-11.898 5.949-1.19zM22.117 11.32l5.949 1.19-10.707 11.898 4.758-13.086zM22.928 9.85l1.91-2.866 2.866 3.821-4.776-0.955z"></path></svg>
